X: 1
T: Pols etter V.R.Storsve
S: printed MS of unknown origin
Z: 2008 John Chambers <jc@trillian.mit.edu>
M: 3/4
L: 1/8
%%slurgraces 1
K: G
V:1
|: "G"g2 (b<g) d>B | "Am"c2 (A<c) e>c | "D7"d2 (A<F) D>F |1,3 "G"G2 D<B, G,2 :|2,4 "G"G2 G4 :|
|: "G"D2 (D<G) B>d | "D7"(dc) (A<F) "G"G>G | "D"d2 (d<f) f>a | "A7"(ag) (e<^c) "D"d>d |
|  "G"B2 (D<G) B>d | "D7"(dc) (A<F) "G"G>G | "Am"(c>e) "G"(d<B) "D7"F>A | "G"G2 G4 :|
V:2
|: "G"[B2D2] (d<B) G>D | "Am"E2 (C<E) G>E | "D7"F2 (D<C) A,>C |1,3 "G"B,2 D<B, B,2 :|2,4 "G"B,2 B,4 :|
|: "G"{D}B,2 (B,<D) G>B | "D7"(BA) (F<C) "G"B,>B, | "D"F2 (F<A) d>f | "A7"(fe) (^c<G) "D"F>F |
|  "G"G2  (B,<D) G>B | "D7"(BA) (F<C) "G"B,>B, | "Am"(A>c) "G"(B<G) "D7"D>C | "G"B,2 B,4 :|
